components/icon/svg/24/action_settings.svg

<?xml version="1.0" encoding="UTF-8"?>
<svg width="24px" height="24px" viewBox="0 0 24 24" version="1.1" xmlns="http://www.w3.org/2000/svg" xmlns:xlink="http://www.w3.org/1999/xlink">
    <!-- Generator: Sketch 64 (93537) - https://sketch.com -->
    <title>ic-db_action_settings_24</title>
    <desc>Created with Sketch.</desc>
    <g id="Symbols" stroke="none" stroke-width="1" fill="none" fill-rule="evenodd">
        <g id="24dp-Icon/Action/Settings" fill="#282D37">
            <path d="M15.411102,3.40267516 L15.315414,4.74159236 L16.6862612,5.53851587 L17.8339045,4.77342033 C18.0250764,4.64590441 18.2164523,4.61407643 18.4076242,4.61407643 C19.5866874,4.61407643 21.7868981,8.44628698 21.7868981,9.74654135 C21.7868981,10.0972611 21.6039893,10.464303 21.2449045,10.6391528 L20.0016752,11.2449045 L20.0016752,12.7750955 L21.2449045,13.3808472 C21.6039893,13.555697 21.7868981,13.9227389 21.7868981,14.2734586 C21.7868981,15.4909807 19.6383058,19.4059236 18.4076242,19.4059236 C18.2164523,19.4059236 18.0250764,19.3740956 17.8339045,19.2465797 L16.6862612,18.4814841 L15.315414,19.2465797 L15.411102,20.6173248 C15.4903659,21.7537468 13.7689009,22.02 12,22.02 C10.406663,22.02 8.50555363,21.8125061 8.58889804,20.6173248 L8.68458599,19.2465797 L7.3137388,18.4814841 L6.16609549,19.2465797 C5.97492362,19.3740956 5.78354772,19.4059236 5.59237585,19.4059236 C4.41331261,19.4059236 2.21310186,15.573713 2.21310186,14.2734586 C2.21310186,13.9227389 2.3960107,13.555697 2.75509554,13.3808472 L3.99832479,12.7750955 L3.99832479,11.2449045 L2.75509554,10.6391528 C2.3960107,10.464303 2.21310186,10.0972611 2.21310186,9.74654135 C2.21310186,8.40925636 4.42535011,4.61407643 5.62420382,4.61407643 C5.78354772,4.61407643 5.97492362,4.64590441 6.16609549,4.77342033 L7.3137388,5.53851587 L8.68458599,4.74159236 L8.58889804,3.40267516 C8.5092188,2.28696912 10.1648395,2.01870867 11.8165779,2.0009703 L12,2 C13.5942551,2 15.4963846,2.20759592 15.411102,3.40267516 Z M12,4.00832479 C11.5536943,4.00832479 11.1073885,4.04025478 10.6291528,4.13584071 L10.7248408,5.25165605 C10.7574848,5.63277564 10.5365252,5.98992224 10.2147771,6.17609549 L7.79197452,7.57877065 C7.63263062,7.64263062 7.47318471,7.70628657 7.28191083,7.70628657 C7.09063694,7.70628657 6.89620066,7.64773126 6.74001916,7.54694268 L5.75171975,6.90936306 C5.17789809,7.57877065 4.73159236,8.37579618 4.41280255,9.20464968 L5.43292994,9.71471338 C5.79017855,9.89333768 6.00675159,10.256605 6.00675159,10.6073248 L6.00675159,13.3808472 C6.00675159,13.763395 5.77742696,14.1011591 5.43292994,14.2734586 L4.41280255,14.7835223 C4.73159236,15.6442038 5.17789809,16.4412294 5.75171975,17.1106369 L6.74001916,16.4730573 C6.89620066,16.3722687 7.09063694,16.3137134 7.28191083,16.3137134 C7.47318471,16.3137134 7.63110043,16.3480917 7.79197452,16.4412294 L10.2147771,17.8439045 C10.5365252,18.0300778 10.7574848,18.3872244 10.7248408,18.7683439 L10.6291528,19.8841593 C11.1073885,19.9797452 11.5536943,20.0116752 12,20.0116752 C12.4463057,20.0116752 12.8926115,19.9797452 13.3708472,19.8841593 L13.2751592,18.7683439 C13.2425152,18.3872244 13.4634748,18.0300778 13.7852229,17.8439045 L16.2080255,16.4412294 C16.3688996,16.3480917 16.5268153,16.3137134 16.7180892,16.3137134 C16.9093631,16.3137134 17.1037993,16.3722687 17.2599808,16.4730573 L18.2482803,17.1106369 C18.8221019,16.4412294 19.2684076,15.6442038 19.5871975,14.7835223 L18.5670701,14.3052866 C18.2054349,14.1357415 17.9932484,13.763395 17.9932484,13.3808472 L17.9932484,10.6391528 C17.9932484,10.256605 18.2098215,9.89333768 18.5670701,9.71471338 L19.5871975,9.20464968 C19.2684076,8.37579618 18.8221019,7.57877065 18.2482803,6.90936306 L17.2599808,7.54694268 C17.1037993,7.64773126 16.9093631,7.70628657 16.7180892,7.70628657 C16.5268153,7.70628657 16.3673694,7.64263062 16.2080255,7.57877065 L13.7852229,6.17609549 C13.4634748,5.98992224 13.2425152,5.63277564 13.2751592,5.25165605 L13.3708472,4.13584071 C12.8926115,4.04025478 12.4463057,4.00832479 12,4.00832479 Z M11.9848216,8 C14.2163503,8 16.0015732,9.81715292 16.0015732,12.0167516 C16.0015732,14.2163503 14.2163503,16.0015732 11.9848216,16.0015732 C9.78522293,16.0015732 8,14.2163503 8,12.0167516 C8,9.81715292 9.78522293,8 11.9848216,8 Z M12,10.0015732 C10.9161146,10.0015732 9.9915732,10.8941847 9.9915732,12.01 C9.9915732,13.0938854 10.9161146,14.0184268 12,14.0184268 C13.1158153,14.0184268 14.0084268,13.0938854 14.0084268,12.01 C14.0084268,10.8941847 13.1157133,10.0019812 12,10.0015732 Z" id="🎨-Color"></path>
        </g>
    </g>
</svg>

<svg width="24" height="24" xmlns="http://www.w3.org/2000/svg"><path d="M15.411 3.403l-.096 1.339 1.371.797 1.148-.766a.983.983 0 01.574-.159c1.179 0 3.379 3.832 3.379 5.133 0 .35-.183.717-.542.892l-1.243.606v1.53l1.243.606c.359.175.542.542.542.892 0 1.218-2.149 5.133-3.38 5.133a.983.983 0 01-.573-.16l-1.148-.765-1.37.766.095 1.37c.08 1.137-1.642 1.403-3.411 1.403-1.593 0-3.494-.207-3.411-1.403l.096-1.37-1.371-.766-1.148.766a.983.983 0 01-.574.159c-1.179 0-3.379-3.832-3.379-5.133 0-.35.183-.717.542-.892l1.243-.606v-1.53l-1.243-.606a.987.987 0 01-.542-.892c0-1.338 2.212-5.133 3.411-5.133.16 0 .35.032.542.16l1.148.765 1.37-.797-.095-1.34c-.08-1.115 1.576-1.383 3.228-1.401L12 2c1.594 0 3.496.208 3.411 1.403zM12 4.008c-.446 0-.893.032-1.37.128l.095 1.116c.032.38-.188.738-.51.924L7.792 7.58c-.16.064-.319.127-.51.127s-.386-.058-.542-.16l-.988-.637c-.574.67-1.02 1.467-1.34 2.296l1.02.51c.358.178.575.542.575.892v2.774c0 .382-.23.72-.574.892l-1.02.51c.319.861.765 1.658 1.339 2.328l.988-.638c.156-.1.35-.16.542-.16.191 0 .35.035.51.128l2.423 1.403c.322.186.542.543.51.924l-.096 1.116c.478.096.925.128 1.371.128.446 0 .893-.032 1.37-.128l-.095-1.116c-.032-.38.188-.738.51-.924l2.423-1.403a.961.961 0 01.51-.127c.191 0 .386.058.542.16l.988.637a7.651 7.651 0 001.34-2.327l-1.02-.479a1.02 1.02 0 01-.575-.924v-2.742c0-.382.217-.746.574-.924l1.02-.51c-.319-.83-.765-1.626-1.339-2.296l-.988.638c-.156.1-.35.16-.542.16-.191 0-.35-.064-.51-.128l-2.423-1.403c-.322-.186-.542-.543-.51-.924l.096-1.116A6.865 6.865 0 0012 4.008zM11.985 8a4.02 4.02 0 014.017 4.017c0 2.2-1.786 3.985-4.017 3.985A3.986 3.986 0 018 12.017C8 9.817 9.785 8 11.985 8zM12 10.002a2.02 2.02 0 00-2.008 2.008c0 1.084.924 2.008 2.008 2.008a2.02 2.02 0 002.008-2.008A2 2 0 0012 10.002z" fill="#282D37" fill-rule="evenodd"/></svg>
